public/protect.svg

<svg width="61" height="43" viewBox="0 0 61 43" fill="none" xmlns="http://www.w3.org/2000/svg">
<path fill-rule="evenodd" clip-rule="evenodd" d="M60.4575 12.6055V18.662L40.2422 25.0493V18.9892L60.4575 12.6055Z" fill="#D3E5FB"/>
<path fill-rule="evenodd" clip-rule="evenodd" d="M40.7023 19.3373V24.4103L60.001 18.3212V13.2439L40.7023 19.3373ZM40.2444 25.5174C40.1459 25.5182 40.0499 25.4863 39.9713 25.4264C39.9092 25.3863 39.8584 25.3307 39.8238 25.2651C39.7892 25.1994 39.7718 25.1259 39.7736 25.0516V18.995C39.7731 18.8945 39.8048 18.7964 39.8639 18.7154C39.923 18.6343 40.0064 18.5746 40.1018 18.545L60.3292 12.1613C60.3969 12.1401 60.4686 12.1351 60.5385 12.1468C60.6085 12.1584 60.6747 12.1864 60.732 12.2285C60.7914 12.2724 60.8401 12.3293 60.8744 12.395C60.9086 12.4607 60.9276 12.5335 60.9298 12.6077V18.6642C60.9302 18.7648 60.8985 18.8629 60.8394 18.9439C60.7803 19.0249 60.6969 19.0846 60.6016 19.1142L40.3748 25.4979C40.332 25.5126 40.2868 25.5192 40.2415 25.5174H40.2444Z" fill="#345BE4"/>
<path fill-rule="evenodd" clip-rule="evenodd" d="M57.2754 28.9141V34.9713L49.0801 39.7381V33.6806L57.2754 28.9141Z" fill="#D3E5FB"/>
<path fill-rule="evenodd" clip-rule="evenodd" d="M49.5362 33.9526V38.9303L56.8142 34.7054V29.727L49.5362 33.9526ZM49.0775 40.2086C48.9946 40.2063 48.9133 40.1843 48.8403 40.1444C48.7698 40.1031 48.7111 40.0439 48.6703 39.9727C48.6294 39.9015 48.6078 39.8208 48.6074 39.7385V33.6818C48.6073 33.5999 48.6288 33.5196 48.6698 33.4489C48.7107 33.3782 48.7696 33.3198 48.8403 33.2796L57.0471 28.5086C57.1174 28.4696 57.1963 28.4492 57.2765 28.4492C57.3567 28.4492 57.4355 28.4696 57.5057 28.5086C57.5774 28.5493 57.6371 28.6083 57.6787 28.6797C57.7204 28.7511 57.7425 28.8324 57.7429 28.9152V34.9725C57.743 35.0554 57.7211 35.1369 57.6794 35.2084C57.6377 35.2799 57.5777 35.3388 57.5057 35.3791L49.3147 40.1458C49.2416 40.1852 49.1604 40.2067 49.0775 40.2086Z" fill="#345BE4"/>
<path fill-rule="evenodd" clip-rule="evenodd" d="M49.0772 33.6818V39.7391L32.0352 29.8151V23.7578L49.0772 33.6818Z" fill="#345BE4"/>
<path fill-rule="evenodd" clip-rule="evenodd" d="M32.4971 29.5448L48.6069 38.9265V33.9489L32.4971 24.5665V29.5448ZM49.077 40.2048C48.994 40.2026 48.9127 40.1805 48.8398 40.1405L31.8013 30.2171C31.7312 30.1759 31.6735 30.1166 31.6339 30.0452C31.5943 29.9739 31.5744 29.893 31.5763 29.8113V23.754C31.5744 23.6722 31.5942 23.5916 31.6338 23.5202C31.6734 23.4488 31.7312 23.3893 31.8013 23.3481C31.8729 23.3069 31.9539 23.2852 32.0364 23.2852C32.1188 23.2852 32.1998 23.3069 32.2714 23.3481L49.3135 33.2758C49.3828 33.3167 49.44 33.3756 49.479 33.4463C49.5179 33.5171 49.5373 33.5971 49.5349 33.678V39.7346C49.5368 39.8159 49.5173 39.8964 49.4784 39.9677C49.4395 40.039 49.3826 40.0985 49.3135 40.1405C49.2408 40.1806 49.1598 40.2022 49.077 40.2048Z" fill="#345BE4"/>
<path fill-rule="evenodd" clip-rule="evenodd" d="M32.0355 23.7578V29.8151L21.0547 41.5787V35.5221L32.0355 23.7578Z" fill="#D3E5FB"/>
<path fill-rule="evenodd" clip-rule="evenodd" d="M21.5124 35.7032V40.3976L31.5767 29.6299V24.9355L21.5124 35.7032ZM21.0538 42.0465C20.9943 42.0454 20.9355 42.0333 20.8803 42.011C20.7928 41.9777 20.7173 41.9185 20.6637 41.8412C20.6101 41.7639 20.581 41.6719 20.5801 41.5776V35.5211C20.5825 35.4009 20.629 35.2859 20.7105 35.1982L31.6949 23.439C31.7587 23.3692 31.842 23.3209 31.9339 23.3002C32.0257 23.2796 32.1216 23.2877 32.2087 23.3235C32.2946 23.3578 32.3681 23.4176 32.4193 23.4951C32.4705 23.5725 32.4971 23.6639 32.4954 23.7569V29.8142C32.498 29.933 32.4557 30.0484 32.3771 30.137L21.3928 41.8962C21.304 41.9892 21.1817 42.0432 21.0538 42.0465Z" fill="#345BE4"/>
<path fill-rule="evenodd" clip-rule="evenodd" d="M21.0536 35.5215V41.5788L1.20312 7.08398V1.02734L21.0536 35.5215Z" fill="#345BE4"/>
<path fill-rule="evenodd" clip-rule="evenodd" d="M1.66477 6.95695L20.5801 39.8347V35.6415L1.66477 2.76811V6.96136V6.95695ZM21.0538 42.044C20.971 42.0439 20.8897 42.0223 20.8178 41.9811C20.7458 41.94 20.6857 41.8808 20.6431 41.8093L0.79978 7.31524C0.757861 7.24379 0.734683 7.16273 0.732422 7.07976V1.0225C0.733811 0.920115 0.76808 0.820883 0.830092 0.739768C0.892104 0.658654 0.978506 0.599988 1.07639 0.572525C1.17485 0.543954 1.28 0.549846 1.37473 0.589188C1.46946 0.62853 1.54821 0.699042 1.59811 0.789227L21.4486 35.2833C21.4963 35.3521 21.52 35.4349 21.516 35.5187V41.5753C21.5147 41.6781 21.4805 41.7778 21.4185 41.8595C21.3566 41.9412 21.2701 42.0006 21.172 42.0288C21.1338 42.0389 21.0947 42.045 21.0552 42.0469L21.0538 42.044Z" fill="#345BE4"/>
<path fill-rule="evenodd" clip-rule="evenodd" d="M1.20703 1.02734L60.4576 12.6082L40.2309 18.9955L57.2729 28.9152L49.0776 33.6819L32.0355 23.7579L21.0547 35.5222L1.20703 1.02734Z" fill="white"/>
<path fill-rule="evenodd" clip-rule="evenodd" d="M2.10993 1.68329L21.1442 34.7394L31.6937 23.438C31.766 23.3601 31.8623 23.3091 31.967 23.2933C32.0717 23.2774 32.1787 23.2976 32.2705 23.3507L49.0754 33.1425L56.3384 28.9132L40.0036 19.3958C39.9272 19.349 39.865 19.2819 39.8238 19.2019C39.7826 19.122 39.764 19.0321 39.77 18.9422C39.7795 18.8506 39.8157 18.7638 39.8741 18.693C39.9326 18.6221 40.0106 18.5704 40.0982 18.5443L58.5671 12.7145L2.10993 1.68329ZM21.0525 35.9888H20.9973C20.9245 35.9789 20.8547 35.953 20.7929 35.9131C20.731 35.8732 20.6785 35.8201 20.639 35.7577L0.795651 1.26364C0.751765 1.18573 0.730711 1.09692 0.734897 1.00744C0.739083 0.917955 0.768351 0.83151 0.819314 0.758115C0.869346 0.685458 0.939275 0.62903 1.0206 0.595809C1.10193 0.562588 1.19111 0.55399 1.27722 0.571036L60.5421 12.1512C60.6442 12.1699 60.737 12.2226 60.8057 12.301C60.8744 12.3793 60.9149 12.4787 60.9208 12.5831C60.9266 12.6875 60.8975 12.7908 60.838 12.8765C60.7786 12.9622 60.6923 13.0251 60.593 13.0554L41.3774 19.1221L57.5014 28.511C57.5732 28.5513 57.6331 28.6102 57.6747 28.6816C57.7163 28.7531 57.7382 28.8344 57.7382 28.9172C57.7382 29 57.7163 29.0814 57.6747 29.1528C57.6331 29.2242 57.5732 29.2831 57.5014 29.3235L49.3104 34.0901C49.2381 34.1314 49.1564 34.1531 49.0732 34.1531C48.9901 34.1531 48.9083 34.1314 48.836 34.0901L32.1258 24.3495L21.39 35.8422C21.3001 35.9322 21.1798 35.9846 21.0532 35.9888H21.0525Z" fill="#345BE4"/>
</svg>

<svg xmlns="http://www.w3.org/2000/svg" width="61" height="43" fill="none" viewBox="0 0 61 43"><path fill="#d3e5fb" fill-rule="evenodd" d="M60.458 12.606v6.056l-20.216 6.387v-6.06z" clip-rule="evenodd"/><path fill="#345be4" fill-rule="evenodd" d="M40.702 19.337v5.073l19.299-6.089v-5.077zm-.458 6.18a.44.44 0 0 1-.273-.09.43.43 0 0 1-.197-.375v-6.057a.47.47 0 0 1 .328-.45l20.227-6.384a.45.45 0 0 1 .403.068.49.49 0 0 1 .198.379v6.056a.47.47 0 0 1-.328.45l-20.227 6.384a.4.4 0 0 1-.133.02z" clip-rule="evenodd"/><path fill="#d3e5fb" fill-rule="evenodd" d="M57.275 28.914v6.057l-8.195 4.767v-6.057z" clip-rule="evenodd"/><path fill="#345be4" fill-rule="evenodd" d="M49.536 33.953v4.977l7.278-4.225v-4.978zm-.459 6.256a.47.47 0 0 1-.47-.47v-6.057a.46.46 0 0 1 .233-.402l8.207-4.771a.47.47 0 0 1 .459 0 .47.47 0 0 1 .237.406v6.057a.47.47 0 0 1-.237.407l-8.191 4.767a.5.5 0 0 1-.237.063" clip-rule="evenodd"/><path fill="#345be4" fill-rule="evenodd" d="M49.077 33.682v6.057l-17.042-9.924v-6.057z" clip-rule="evenodd"/><path fill="#345be4" fill-rule="evenodd" d="m32.497 29.545 16.11 9.381V33.95l-16.11-9.382zm16.58 10.66a.5.5 0 0 1-.237-.064L31.8 30.217a.46.46 0 0 1-.225-.406v-6.057a.46.46 0 0 1 .695-.406l17.042 9.928a.45.45 0 0 1 .222.402v6.057a.46.46 0 0 1-.221.406.5.5 0 0 1-.237.064" clip-rule="evenodd"/><path fill="#d3e5fb" fill-rule="evenodd" d="M32.036 23.758v6.057L21.054 41.58v-6.057z" clip-rule="evenodd"/><path fill="#345be4" fill-rule="evenodd" d="M21.512 35.703v4.695L31.577 29.63v-4.694zm-.458 6.343a.49.49 0 0 1-.39-.205.47.47 0 0 1-.084-.263V35.52a.5.5 0 0 1 .13-.323L31.696 23.44a.46.46 0 0 1 .8.318v6.057a.47.47 0 0 1-.118.323l-10.984 11.76a.49.49 0 0 1-.34.15" clip-rule="evenodd"/><path fill="#345be4" fill-rule="evenodd" d="M21.054 35.522v6.057L1.204 7.084V1.027z" clip-rule="evenodd"/><path fill="#345be4" fill-rule="evenodd" d="M1.665 6.957 20.58 39.835v-4.193L1.665 2.767v4.193zm19.389 35.087a.48.48 0 0 1-.41-.235L.8 7.315a.5.5 0 0 1-.068-.235V1.023a.48.48 0 0 1 .344-.45.45.45 0 0 1 .522.216l19.85 34.494a.38.38 0 0 1 .068.236v6.056a.48.48 0 0 1-.344.454.6.6 0 0 1-.117.018z" clip-rule="evenodd"/><path fill="#fff" fill-rule="evenodd" d="m1.207 1.027 59.25 11.581-20.226 6.387 17.042 9.92-8.195 4.767-17.043-9.924-10.98 11.764z" clip-rule="evenodd"/><path fill="#345be4" fill-rule="evenodd" d="M2.11 1.683 21.144 34.74l10.55-11.301a.47.47 0 0 1 .576-.087l16.805 9.792 7.263-4.23-16.334-9.517a.49.49 0 0 1-.234-.454.47.47 0 0 1 .328-.398l18.47-5.83zM21.053 35.99h-.056a.5.5 0 0 1-.358-.231L.796 1.264A.48.48 0 0 1 .819.758a.45.45 0 0 1 .458-.187l59.265 11.58a.46.46 0 0 1 .379.432.47.47 0 0 1-.328.472l-19.216 6.067 16.124 9.389a.46.46 0 0 1 .237.406.47.47 0 0 1-.237.406l-8.19 4.767a.48.48 0 0 1-.475 0l-16.71-9.74L21.39 35.842a.5.5 0 0 1-.337.147" clip-rule="evenodd"/></svg>
